X: 28303
T: Mt. Celo Road
R: jig
M: 6/8
K: Gmajor
G,B,D GBd|cBc ABc|Bdg gfg|afd d2 a|bgb agf|
gfe dcB|1 cec BdB|cAA A3:|2 ceg Bdg|Agf g2 a||
bgb agf|gfe dcB|cec BdB|cAA A2 B|
GFG Bdg|fga g2 a|bgb afd|cBA G3:|

